images/svg/gradle.svg

<?xml version="1.0" encoding="UTF-8"?>
<svg xmlns="http://www.w3.org/2000/svg" width="601" height="167" viewBox="0 0 601 167" fill="none">
  <g clip-path="url(#clip0_511_1274)">
    <path d="M323.833 121.097V157.288C319.456 160.55 314.55 163.034 309.33 164.63C303.974 166.209 298.414 166.988 292.83 166.939C286.07 167.041 279.349 165.889 273.009 163.541C267.382 161.414 262.245 158.166 257.91 153.993C253.706 149.899 250.409 144.967 248.233 139.517C245.926 133.671 244.772 127.434 244.835 121.149C244.762 114.825 245.87 108.543 248.104 102.625C252.222 91.5936 260.918 82.8877 271.946 78.7574C278.123 76.4467 284.679 75.3116 291.273 75.4107C294.682 75.3918 298.086 75.6784 301.443 76.2669C304.438 76.8085 307.38 77.607 310.238 78.6536C312.825 79.6187 315.304 80.8535 317.632 82.3376C319.837 83.77 321.912 85.3934 323.833 87.189L319.059 94.7386C318.443 95.8441 317.387 96.6363 316.153 96.9178C314.79 97.1543 313.389 96.8367 312.262 96.0358L308.266 93.6749C306.819 92.8544 305.299 92.1683 303.726 91.6254C301.889 91.0125 300.007 90.5441 298.097 90.2244C295.715 89.8149 293.301 89.6238 290.884 89.6537C286.789 89.5974 282.724 90.3558 278.924 91.8848C275.44 93.3 272.319 95.4813 269.792 98.2669C267.191 101.153 265.213 104.544 263.981 108.229C262.562 112.404 261.869 116.792 261.931 121.201C261.853 125.861 262.599 130.499 264.137 134.899C265.455 138.702 267.559 142.184 270.311 145.121C272.996 147.887 276.255 150.03 279.858 151.399C286.725 153.88 294.171 154.277 301.262 152.541C303.885 151.834 306.439 150.887 308.889 149.713V133.602H297.604C296.649 133.681 295.706 133.351 295.009 132.694C294.413 132.117 294.084 131.318 294.101 130.489V121.097H323.833ZM350.995 113.496C352.692 110.049 355.097 106.999 358.052 104.545C360.791 102.37 364.206 101.222 367.703 101.302C370.2 101.17 372.674 101.843 374.76 103.222L373.774 114.663C373.646 115.268 373.339 115.819 372.892 116.246C372.429 116.569 371.873 116.733 371.309 116.713C370.386 116.682 369.466 116.577 368.559 116.401C367.376 116.197 366.179 116.093 364.979 116.09C363.443 116.063 361.915 116.309 360.465 116.816C359.157 117.309 357.952 118.039 356.91 118.97C355.819 119.946 354.883 121.084 354.134 122.342C353.264 123.785 352.509 125.294 351.877 126.857V165.953H336.804V102.47H345.755C346.916 102.356 348.081 102.65 349.05 103.3C349.794 104.133 350.233 105.194 350.295 106.309L350.995 113.496ZM380.467 111.316C387.628 104.679 397.09 101.087 406.852 101.302C410.26 101.242 413.646 101.859 416.814 103.118C419.636 104.285 422.169 106.056 424.234 108.307C426.302 110.549 427.875 113.2 428.852 116.09C429.928 119.282 430.463 122.632 430.434 126V165.953H423.481C422.338 166.018 421.196 165.795 420.161 165.305C419.239 164.7 418.573 163.776 418.293 162.71L416.944 158.118C415.444 159.48 413.868 160.753 412.222 161.932C410.733 163.001 409.142 163.922 407.474 164.682C405.807 165.428 404.069 166.001 402.285 166.394C400.234 166.793 398.148 166.984 396.059 166.965C393.546 166.985 391.045 166.627 388.639 165.901C386.47 165.234 384.464 164.121 382.75 162.633C381.075 161.161 379.761 159.323 378.91 157.262C377.963 154.879 377.504 152.329 377.561 149.765C377.563 148.131 377.834 146.51 378.366 144.965C378.932 143.3 379.813 141.758 380.96 140.425C382.335 138.842 383.934 137.47 385.708 136.352C387.922 134.917 390.323 133.791 392.842 133.005C396.065 131.951 399.372 131.17 402.727 130.67C407.021 130.021 411.355 129.665 415.698 129.607V125.871C415.972 122.496 415.004 119.137 412.974 116.427C410.957 114.312 408.109 113.192 405.191 113.366C403.1 113.308 401.013 113.598 399.017 114.222C397.53 114.731 396.097 115.383 394.736 116.168L391.363 118.114C390.34 118.707 389.174 119.012 387.991 118.996C387.016 119.028 386.058 118.736 385.267 118.166C384.545 117.633 383.937 116.963 383.476 116.194L380.467 111.316ZM415.491 138.842C411.75 138.977 408.023 139.367 404.335 140.01C401.839 140.396 399.405 141.111 397.097 142.137C395.549 142.778 394.204 143.827 393.205 145.173C391.261 148.225 391.774 152.23 394.425 154.694C396.249 155.928 398.425 156.538 400.625 156.432C403.436 156.5 406.225 155.914 408.771 154.72C411.294 153.391 413.567 151.636 415.491 149.531V138.842ZM499.885 73.9838V165.953H490.545C488.752 166.117 487.113 164.932 486.705 163.177L485.408 157.055C482.912 159.927 479.925 162.334 476.588 164.163C473.004 165.995 469.014 166.888 464.991 166.758C458.289 166.867 451.951 163.713 447.998 158.3C445.779 155.282 444.143 151.878 443.172 148.26C441.971 143.742 441.395 139.081 441.46 134.406C441.425 129.958 442.073 125.531 443.38 121.279C444.558 117.505 446.432 113.985 448.906 110.901C451.226 107.978 454.157 105.596 457.493 103.923C460.992 102.191 464.848 101.302 468.753 101.328C471.871 101.241 474.972 101.807 477.859 102.989C480.353 104.088 482.636 105.616 484.604 107.503V74.0098L499.885 73.9838ZM484.682 118.684C483.176 116.771 481.238 115.242 479.026 114.222C476.938 113.355 474.698 112.914 472.437 112.925C470.283 112.895 468.148 113.338 466.184 114.222C464.262 115.109 462.594 116.465 461.333 118.166C459.89 120.166 458.859 122.432 458.297 124.833C457.552 127.968 457.203 131.184 457.26 134.406C457.202 137.568 457.497 140.727 458.142 143.824C458.606 146.076 459.486 148.223 460.736 150.154C461.746 151.69 463.166 152.912 464.835 153.682C466.529 154.415 468.36 154.777 470.205 154.746C473.041 154.841 475.849 154.159 478.326 152.774C480.764 151.293 482.917 149.386 484.682 147.144V118.684ZM530.524 74.0098V165.953H515.243V74.0098H530.524ZM557.583 136.118C557.744 139.008 558.33 141.857 559.321 144.576C560.099 146.763 561.318 148.768 562.901 150.465C564.349 151.991 566.123 153.17 568.09 153.916C570.258 154.708 572.553 155.095 574.861 155.057C577.028 155.099 579.189 154.811 581.269 154.201C582.886 153.695 584.457 153.053 585.965 152.281C587.314 151.581 588.56 150.932 589.493 150.361C590.38 149.828 591.39 149.533 592.425 149.505C593.565 149.426 594.658 149.972 595.279 150.932L599.767 156.588C598.142 158.532 596.225 160.212 594.085 161.569C592.021 162.893 589.81 163.973 587.496 164.786C585.223 165.588 582.877 166.161 580.491 166.498C578.214 166.825 575.916 166.989 573.616 166.991C569.406 167.036 565.226 166.288 561.293 164.786C557.559 163.366 554.178 161.153 551.382 158.3C548.468 155.248 546.215 151.627 544.767 147.663C543.076 142.947 542.258 137.962 542.354 132.953C542.325 128.788 543.037 124.65 544.456 120.734C545.786 117.043 547.841 113.656 550.5 110.772C553.193 107.895 556.453 105.607 560.074 104.052C564.113 102.316 568.467 101.433 572.864 101.458C576.643 101.412 580.398 102.063 583.941 103.378C587.221 104.589 590.196 106.501 592.658 108.982C595.186 111.552 597.14 114.629 598.392 118.01C599.833 121.92 600.536 126.063 600.467 130.229C600.597 131.824 600.339 133.426 599.715 134.899C599.046 135.779 597.958 136.234 596.861 136.092L557.583 136.118ZM586.718 126.908C586.716 125.008 586.427 123.119 585.861 121.305C585.31 119.617 584.428 118.056 583.267 116.713C582.119 115.354 580.671 114.279 579.038 113.574C577.15 112.783 575.118 112.394 573.071 112.432C569.246 112.231 565.502 113.588 562.694 116.194C559.954 119.142 558.251 122.904 557.842 126.908L586.718 126.908ZM212.95 11.3045C199.376 -2.28054 177.472 -2.6479 163.45 10.4743C162.775 11.0954 162.39 11.9698 162.386 12.887C162.367 13.8082 162.723 14.6977 163.372 15.3516L167.861 19.8398C169.057 21.031 170.946 21.1636 172.297 20.1512C175.816 17.4954 180.108 16.0648 184.516 16.0781C195.792 16.0778 204.934 25.2189 204.934 36.4952C204.934 41.9041 202.788 47.092 198.967 50.9201C170.766 79.2763 132.915 0.0449948 47.2754 40.8022C41.4537 43.5063 38.9265 50.4178 41.6307 56.2395C41.7701 56.5395 41.9222 56.8335 42.0867 57.1206L56.7707 82.5192C59.9588 88.0179 66.9662 89.9458 72.5183 86.8518L72.8816 86.6442L72.5962 86.8518L79.108 83.1937C86.3718 78.695 93.2373 73.5827 99.6292 67.9131C100.928 66.7015 102.922 66.6351 104.299 67.7574C105.732 68.925 105.947 71.0331 104.779 72.4659C104.636 72.6418 104.475 72.8027 104.299 72.9461C97.6292 78.9529 90.4505 84.3695 82.8438 89.1348L82.6103 89.2645L76.0985 92.8966C73.3538 94.4522 70.2511 95.2658 67.0962 95.2575C60.4423 95.2739 54.2835 91.7447 50.9334 85.9956L37.0277 62.0239C10.3578 80.8588 -5.83087 117.154 2.86019 163.074C3.17142 164.675 4.576 165.829 6.20689 165.824H22.0065C23.7577 165.891 25.2685 164.605 25.4829 162.866C27.1386 150.164 38.7778 141.209 51.4797 142.865C61.911 144.225 70.1209 152.435 71.4806 162.866C71.6875 164.536 73.0932 165.798 74.7754 165.824H90.1858C91.8934 165.825 93.3369 164.559 93.5585 162.866C95.1574 150.171 106.745 141.176 119.439 142.775C129.939 144.098 138.208 152.367 139.53 162.866C139.74 164.555 141.175 165.823 142.877 165.824H158.106C159.948 165.824 161.45 164.345 161.478 162.503C161.842 141.022 167.627 116.349 184.153 104C241.203 61.2456 226.181 24.5875 212.95 11.3045ZM154.655 75.9555L143.759 70.4815C143.745 66.6988 146.8 63.6211 150.583 63.6071C154.365 63.593 157.443 66.6481 157.457 70.4307C157.465 72.6227 156.424 74.6862 154.655 75.9815V75.9555Z" fill="white"></path>
  </g>
  <defs>
    <clipPath id="clip0_511_1274">
      <rect width="600" height="166.124" fill="white" transform="translate(0.5 0.869141)"></rect>
    </clipPath>
  </defs>
</svg>

<svg xmlns="http://www.w3.org/2000/svg" width="601" height="167" fill="none" viewBox="0 0 601 167"><g clip-path="url(#a)"><path fill="#fff" d="M323.83 121.1v36.19a48 48 0 0 1-14.5 7.34 57 57 0 0 1-16.5 2.3 55 55 0 0 1-19.82-3.39 44 44 0 0 1-15.1-9.55c-4.2-4.1-7.5-9.02-9.68-14.47a49 49 0 0 1-3.4-18.37 51 51 0 0 1 3.27-18.53 40.7 40.7 0 0 1 23.85-23.86 53 53 0 0 1 19.32-3.35q5.13-.03 10.17.86a53 53 0 0 1 8.8 2.38q3.88 1.45 7.4 3.69a45 45 0 0 1 6.2 4.85l-4.78 7.55a4.5 4.5 0 0 1-2.9 2.18 5.2 5.2 0 0 1-3.9-.88l-4-2.37a27 27 0 0 0-4.53-2.04 39.67 39.67 0 0 0-12.84-1.97c-4.1-.06-8.17.7-11.97 2.22a25 25 0 0 0-9.13 6.39 28 28 0 0 0-5.8 9.96 39 39 0 0 0-2.06 12.97c-.08 4.66.67 9.3 2.2 13.7a29 29 0 0 0 6.18 10.22 26 26 0 0 0 9.55 6.28 37 37 0 0 0 21.4 1.14q3.95-1.06 7.63-2.83v-16.1H297.6c-.95.07-1.9-.26-2.6-.92a3 3 0 0 1-.9-2.2v-9.4zm27.17-7.6c1.7-3.45 4.1-6.5 7.05-8.95a15 15 0 0 1 9.65-3.25c2.5-.13 4.97.54 7.06 1.92l-.99 11.44c-.12.6-.43 1.16-.88 1.59a2.6 2.6 0 0 1-1.58.46q-1.38-.04-2.75-.3-1.77-.32-3.58-.32-2.32-.04-4.52.73-1.96.75-3.55 2.15-1.65 1.48-2.78 3.37a32 32 0 0 0-2.25 4.52v39.1H336.8v-63.49h8.95a5 5 0 0 1 3.3.83c.74.83 1.18 1.9 1.25 3zm29.47-2.18a37.6 37.6 0 0 1 26.38-10.02c3.41-.06 6.8.56 9.96 1.82a21 21 0 0 1 7.42 5.19 22 22 0 0 1 4.62 7.78 30 30 0 0 1 1.58 9.91v39.95h-6.95a7 7 0 0 1-3.32-.64 4.5 4.5 0 0 1-1.87-2.6l-1.35-4.6a53 53 0 0 1-4.72 3.82 26.83 26.83 0 0 1-9.94 4.46q-3.08.6-6.22.57a25 25 0 0 1-7.42-1.06 16 16 0 0 1-5.89-3.27 14.5 14.5 0 0 1-3.84-5.37 19 19 0 0 1-1.35-7.5q0-2.46.8-4.8c.57-1.66 1.45-3.2 2.6-4.53a21 21 0 0 1 4.75-4.08 29 29 0 0 1 7.13-3.34 61 61 0 0 1 9.89-2.34q6.45-.97 12.97-1.06v-3.74c.27-3.37-.7-6.73-2.73-9.44a10 10 0 0 0-7.78-3.06c-2.09-.06-4.18.23-6.17.85q-2.24.77-4.28 1.95l-3.38 1.94c-1.02.6-2.19.9-3.37.89a4.4 4.4 0 0 1-2.72-.83 7 7 0 0 1-1.8-1.98zm35.02 27.52q-5.62.21-11.16 1.17-3.77.58-7.23 2.13a9.3 9.3 0 0 0-3.9 3.03 7.5 7.5 0 0 0 1.23 9.52 10.2 10.2 0 0 0 6.2 1.74c2.8.07 5.6-.52 8.14-1.71a25 25 0 0 0 6.72-5.19zm84.4-64.86v91.97h-9.34a3.6 3.6 0 0 1-3.85-2.77l-1.3-6.12a32 32 0 0 1-8.81 7.1 24 24 0 0 1-11.6 2.6c-6.7.1-13.04-3.05-17-8.46a30 30 0 0 1-4.82-10.04 51 51 0 0 1-1.71-13.85c-.03-4.45.61-8.88 1.92-13.13a32 32 0 0 1 5.53-10.38 25 25 0 0 1 19.85-9.57c3.11-.09 6.21.48 9.1 1.66 2.5 1.1 4.78 2.63 6.74 4.51V74.01zm-15.2 44.7a15.4 15.4 0 0 0-5.66-4.46 17 17 0 0 0-6.6-1.3c-2.15-.03-4.28.42-6.25 1.3a12.6 12.6 0 0 0-4.85 3.95c-1.44 2-2.47 4.26-3.03 6.66a39 39 0 0 0-1.04 9.58q-.09 4.76.88 9.41c.47 2.26 1.35 4.4 2.6 6.33a10 10 0 0 0 4.1 3.53c1.69.73 3.52 1.1 5.37 1.07 2.83.1 5.64-.6 8.12-1.98a24 24 0 0 0 6.35-5.63zm45.83-44.67v91.94h-15.28V74.01zm27.06 62.1q.25 4.37 1.74 8.47c.78 2.18 2 4.19 3.58 5.88a14 14 0 0 0 5.19 3.46c2.17.79 4.46 1.18 6.77 1.14a21 21 0 0 0 6.4-.86 30 30 0 0 0 4.7-1.92c1.35-.7 2.6-1.35 3.53-1.92a6 6 0 0 1 2.93-.86 3.1 3.1 0 0 1 2.86 1.43l4.49 5.66a25 25 0 0 1-5.68 4.98 32 32 0 0 1-6.6 3.22q-3.41 1.2-7 1.7-3.42.5-6.87.5c-4.21.05-8.4-.7-12.33-2.2a28 28 0 0 1-9.9-6.49 31 31 0 0 1-6.62-10.64c-1.7-4.71-2.51-9.7-2.42-14.7-.02-4.17.69-8.31 2.1-12.23a29 29 0 0 1 6.05-9.96 29 29 0 0 1 9.57-6.72 32 32 0 0 1 12.8-2.6c3.77-.04 7.53.61 11.07 1.93a24 24 0 0 1 8.72 5.6 25.5 25.5 0 0 1 5.73 9.03 34 34 0 0 1 2.08 12.22 10 10 0 0 1-.75 4.67 3.1 3.1 0 0 1-2.86 1.2zm29.14-9.2c0-1.9-.3-3.8-.86-5.6a13 13 0 0 0-2.6-4.6 11.5 11.5 0 0 0-4.22-3.14 15 15 0 0 0-5.97-1.14 14.2 14.2 0 0 0-10.38 3.76 18.5 18.5 0 0 0-4.85 10.72zM212.95 11.3a35.6 35.6 0 0 0-49.5-.84 3.4 3.4 0 0 0-.08 4.88l4.5 4.49a3.4 3.4 0 0 0 4.43.31 20.42 20.42 0 0 1 26.67 30.77C170.77 79.28 132.9.04 47.27 40.8a11.6 11.6 0 0 0-5.18 16.32l14.68 25.4a11.65 11.65 0 0 0 15.75 4.33l.36-.2-.28.2 6.5-3.66c7.27-4.5 14.14-9.6 20.53-15.28a3.55 3.55 0 0 1 4.67-.15 3.35 3.35 0 0 1 0 5.19q-10.03 9.02-21.46 16.18l-.23.13-6.51 3.64A18.65 18.65 0 0 1 50.93 86l-13.9-23.98C10.36 80.86-5.83 117.15 2.86 163.07a3.4 3.4 0 0 0 3.35 2.75H22a3.37 3.37 0 0 0 3.47-2.95 23.2 23.2 0 0 1 46 0 3.4 3.4 0 0 0 3.3 2.95h15.4a3.4 3.4 0 0 0 3.38-2.95 23.17 23.17 0 0 1 45.97 0 3.4 3.4 0 0 0 3.35 2.95h15.23a3.37 3.37 0 0 0 3.37-3.32c.36-21.48 6.15-46.15 22.67-58.5 57.05-42.75 42.03-79.41 28.8-92.7m-58.3 64.65-10.9-5.48a6.85 6.85 0 1 1 10.9 5.5z"/></g><defs><clipPath id="a"><path fill="#fff" d="M.5.87h600v166.12H.5z"/></clipPath></defs></svg>
